X: 20102
T: Sailers lead a merry Life
%R: march
B: James Oswald "The Caledonian Pocket Companion" v.2 p.10 #2 (and top 4 staves of p.11)
Z: 2019 John Chambers <jc:trillian.mit.edu>
M: C|
L: 1/8
K: G
|:\
g3f g2a2 | g2f2 e4 | f3e f2g2 | Te4 d4 ::\
d3e d2e2 | (=fe)(dc) B4 | c3d c2d2 | (ed)(cB) A4 |
B3c B2A2 | G2A2 B2c2 | d4 G4 | TB3c B2A2 |\
G2A2 B2c2 | d8- | d8- | d3e d2e2 |\
(=fe)(dc) TB4 |
c3d c2d2 | (ed)(cB) A4 | TB3c B2A2 |\
G2A2 B2c2 | d4 G4 | "_pia:"TB3c B2A2 | G2A2 B2c2 |\
d4 G4 :|


